X:1
T:Nearer, My God, to Thee
T:Nearer, My God, to Thee
T:Bass 1/2
L:1/8
M:4/4
K:Bb
V:1 bass nm="Piano" snm="Pno."
V:1
 G,6 G,2 | E,3 E, E,2 z2 | [B,,D,]8 | D,6 z2 | G,6 F,2 | E,3 E, E,2 z2 | C,4 D,2 D,2 | G,6 z2 | %8
w: In- ar-|ti- cu- lo|mor-|tis|Ca- *|e- li- tus|mi- hi vi-|res|
w: ||||||||
 G,8 | E,6 z2 | [B,,D,]8 | D,6 z2 | G,6 F,2 | E,6 z2 | C,4 E,4 | G,6 z2 |[M:7/8] G,2 G,2 G,2 G, | %17
w: Oo-||Oo-||Oo- *||Oo- *||In ar- ti- cu-|
w: |||||||||
 G,2 G,2 G,2 G, | E,2 E,2 E,2 E, | E,2 E,2 E,3 | [B,,D,]2 [B,,D,]2 [B,,D,]2 [B,,D,] | %21
w: lo mor- tis Ca-|e- li- tus mi-|hi vi- res|De- o ad- ju-|
w: ||||
 [B,,D,]2 [B,,D,]2 [B,,D,]2 [B,,D,] | D,2 D,2 D,2 D, | D,2 D,2 D,2 D, | G,2 G,2 G,2 G, | %25
w: van- te non ti-|men- dum In per-|pe- tu- u- m|Di- ri- ge nos|
w: ||||
 G,2 G,2 G,2 G, | E,2 E,2 E,2 E, | E,2 E,2 E,3 | [C,E,]2 [C,E,]2 [C,E,]2 [C,E,] | %29
w: do- mi- ne d|au- gu- sta- per|au- gu- sta-|Sie it- ur ad|
w: ||||
 D,2 D, D, D,2 D, | G, z G,2 G,2 G, | G,2 G,2 G,2 G, | [G,,G,]2 [G,,G,]2 [G,,G,]2 [G,,G,] | %33
w: as- tra Ex- cel- si-|or Es- cel- si-|or Ex- cel- si-|or Ex- cel- si-|
w: ||||
 [G,,G,]2 [G,,G,]2 [G,,G,]2 [G,,G,] |[M:4/4] [E,,B,,E,]8 | [E,,B,,E,]4 [E,,B,,E,]4 | %36
w: or Ex- cel- si|Ну-|жно о-|
w: |||
 [F,,C,F,]6 [F,,C,F,]2 | [G,,D,G,]6 z2 | [E,,B,,E,]8 | [E,,B,,E,]4 [B,,E,]4 | %40
w: дно лишь|мне|бли-|же. Го-|
w: ||||
 [C,,C,E,]6 [C,,C,E,]2 | [D,G,]4 [D,_G,]2 z2 |[M:7/8] G,2 G,2 G,2 G, | G,2 G,2 G,2 G, | %44
w: сподь. кТе-|бе- е|Di- ri- ge nos|do- mi- ne Ad|
w: ||||
 E,2 E,2 E,2 E, | E,2 E,2 E,3 | [C,E,]2 [C,E,]2 [C,E,]2 [C,E,] | D,2 D, D, D,2 D, | G,2 z z4 | z7 | %50
w: au- gu- sta per|an- gu- sta|Sie it- ur ad|as- tra Ex- cel- si-|or||
w: ||||||
 [G,,G,]2 [G,,G,]2 [G,,G,]2 [G,,G,] | [G,,G,]2 [G,,G,]2 [G,,G,]2 [G,,G,] | %52
w: In ar- ti- cu-|lo mor- tis Ca-|
w: ||
 [E,,E,G,]2 [E,,E,G,]2 [E,,E,G,]2 [E,,E,G,] | %53
w: e- li- tus mi-|
w: |
 [E,,E,G,]2 [E,,E,G,]2 ([E,,E,G,] ([E,,E,F,][E,,E,G,])) | %54
w: hi vi- re- * s|
w: |
 [B,,,B,,D,]2 [B,,,B,,D,]2 [B,,,B,,D,]2 [B,,,B,,D,] | %55
w: De- o ad- ju|
w: |
 [B,,,B,,D,]2 [B,,,B,,D,]2 [B,,,B,,D,]2 [B,,,B,,D,] | [D,,D,]2 [D,,D,]2 [D,,D,]2 [D,,D,] | %57
w: van- te non ti-|men- dum In per-|
w: ||
 [D,,D,]2 [D,,D,]2 ([D,,D,] [D,,=E,][D,,D,_G,]) | [G,,G,]2 [G,,G,]2 [G,,G,]2 [G,,G,] | %59
w: pe- tu- u- * m|Di- ri- ge nos|
w: ||
 [G,,G,]2 [G,,G,]2 [G,,G,]2 [G,,G,] | [E,,E,G,]2 [E,,E,G,]2 [E,,E,G,]2 [E,,E,G,] | %61
w: do- mi- ne Ad|au- gu- sta- per|
w: ||
 [E,,E,]2 [E,,E,]2 [E,,E,]3 | [C,,C,E,]2 [C,,C,E,]2 [C,,C,E,]2 [C,,C,E,] | %63
w: an- gu- sta|Sie it- ur ad|
w: ||
 [D,,D,]2 [D,,D,] [D,,D,] [D,,D,]2 [D,,D,] | [G,,G,] z G,2 G,2 G, | G,2 G,2 G,2 G, | %66
w: as- tra Ex- cel- si-|or Es- cel- si-|or Ex- cel- si-|
w: |||
 [G,,G,]2 [G,,G,]2 [G,,G,]2 [G,,G,] | [G,,G,]2 [G,,G,]2 [G,,G,]2 [G,,G,] |[M:4/4] [E,,B,,E,]8 | %69
w: or Ex- cel- si-|or Ex- cel- si|но|
w: |||
 [B,,E,]4 [B,,E,]4 | [F,,C,F,]6 [F,,C,F,]2 | [G,,D,G,]6 z2 | [E,,B,,E,]8 | %73
w: сер- дце|и во|сне|бли-|
w: ||||
 ([E,,B,,E,]4 (([E,,B,,E,]2) [D,,B,,E,]2)) | [C,,C,E,]6 [C,,C,E,]2 | ([D,,D,G,]4 [D,,D,_G,]2) z2 | %76
w: же. Го- *|сподь. кТе-|бе- е|
w: |||
[M:7/8] [G,,G,]2 [G,,G,]2 [G,,G,]2 [G,,G,] | [G,,G,]2 [G,,G,]2 [G,,G,]2 [G,,G,] | %78
w: Di- ri- ge nos|do- mi- ne Ad|
w: ||
 [E,,E,]2 [E,,E,]2 [E,,E,]2 [E,,E,] | [E,,E,]2 [E,,E,]2 [E,,E,]3 | %80
w: au- gu- sta per|an- gu- sta|
w: ||
 [C,,C,E,]2 [C,,C,E,]2 [C,,C,E,]2 [C,,C,E,] | [D,,D,]2 [D,,D,] [D,,D,] [D,,D,]2 [D,,D,] | %82
w: Sie it- ur ad|as- tra Ex- cel- si-|
w: ||
 [G,,G,] z [G,,G,]2 [G,,G,]2 [G,,G,] | [G,,G,]2 [G,,G,]2 [G,,G,]2 [G,,G,] | _C,2 G,2 G,2 G, | %85
w: or Ex- cel- si-|oa Ex- cel- si-|or Ex- cel- si-|
w: |||
 G,2 _C,2 C,2 C, | C,2 G,2 G,2 G, | G,2 [C,G,]2 [C,G,]2 [C,G,] | [D,G,]2 [D,G,]2 [D,G,]2 [D,G,] | %89
w: or Ex- cel- si-|or Ex- cel- si|or Ex- cel- si-|or Ex- cel- si-|
w: ||||
 [D,_G,]2 [D,G,]2 [D,G,]2 [D,G,] |[K:Eb] [E,,E,G,]2 [E,,E,G,]2 [E,,E,G,]2 [E,,E,G,] | %91
w: or Ex- cel- si|In ar- ti- cu-|
w: ||
 [E,,E,G,]2 [E,,E,G,]2 [E,,E,G,]2 [E,,E,G,] | [A,,E,A,]2 [A,,E,A,]2 [A,,E,A,] [A,,D,G,][A,,E,A,] | %93
w: lo mor- tis Ca|e- li- tu- s mi-|
w: ||
 [A,,E,A,]2 [A,,E,A,]2 ([A,,E,A,] [A,,D,G,][A,,E,A,]) | %94
w: hi vi- re- * s|
w: |
 [E,,E,B,]2 [E,,E,G,]2 [E,,E,G,]2 [E,,E,G,] | [E,,E,G,]2 [E,,E,G,]2 [E,,E,G,]2 [E,,F,G,] | %96
w: De- o ad- ju-|van te non ti-|
w: ||
 [G,,D,G,]2 [G,,D,G,]2 [G,,D,G,]2 [G,,C,F,] | %97
w: men dum In per-|
w: |
 [G,,D,G,]2 [G,,D,G,]2 [G,,D,G,] ([G,,C,F,][G,,D,G,]) | %98
w: pe- tu- u- * m|
w: |
 [C,,C,G,]2 [C,,C,G,]2 [C,,C,G,]2 [C,,C,G,] | [D,,D,G,]2 [D,,D,G,]2 [E,,E,G,]2 [E,,E,G,] | %100
w: Di- ri- ge nos|do- mi- ne Ad|
w: ||
 [F,,F,A,]2 [F,,F,A,]2 [F,,F,A,]2 [F,,F,A,] | [G,,_F,G,]2 [G,,F,G,]2 ([A,,=F,A,]2 [A,,F,A,]) | %102
w: au- gu- sta per|an- gu- sta *|
w: ||
 [G,,E,G,]2 [G,,E,G,]2 [G,,E,G,] ([G,,E,F,][G,,E,G,]) | %103
w: Sic it- ur- * ad|
w: |
 [G,,D,G,]2 [G,,D,G,] [G,,D,G,] [G,,G,]2 [G,,G,] | C,2 C,2 C,2 C, | C,2 C,2 C,2 C, | %106
w: as- tra Ex- cel- si|Di- ri- ge nos|do- mi- ne ad|
w: |||
 [A,,E,A,]2 [A,,E,A,]2 [A,,E,A,]2 [A,,E,A,] | [A,,E,A,]2 [A,,E,A,]2 [A,,E,A,]3 | %108
w: au- gu- sta per|an- gu- sta|
w: ||
 [F,,E,A,]2 [F,,E,A,]2 [F,,E,A,]2 [F,,E,A,] | [G,,D,G,]2 [G,,D,G,] [G,,D,G,] [G,,D,G,]2 [G,,D,G,] | %110
w: Sic it- ur ad|as- tra Ex- cel- si-|
w: |* * бли- же кТе-|
 [C,G,]3 z4 |] %111
w: or|
w: бе|

